svg/editor/hashtag_line.svg

<?xml version="1.0" encoding="UTF-8"?>
<svg width="24px" height="24px" viewBox="0 0 24 24" version="1.1" xmlns="http://www.w3.org/2000/svg" xmlns:xlink="http://www.w3.org/1999/xlink">
    <title>hashtag_line</title>
    <g id="页面-1" stroke="none" stroke-width="1" fill="none" fill-rule="evenodd">
        <g id="Editor" transform="translate(-384.000000, 0.000000)">
            <g id="hashtag_line" transform="translate(384.000000, 0.000000)">
                 <path d="M24,0 L24,24 L0,24 L0,0 L24,0 Z M12.5934901,23.257841 L12.5819402,23.2595131 L12.5108777,23.2950439 L12.4918791,23.2987469 L12.4918791,23.2987469 L12.4767152,23.2950439 L12.4056548,23.2595131 C12.3958229,23.2563662 12.3870493,23.2590235 12.3821421,23.2649074 L12.3780323,23.275831 L12.360941,23.7031097 L12.3658947,23.7234994 L12.3769048,23.7357139 L12.4804777,23.8096931 L12.4953491,23.8136134 L12.4953491,23.8136134 L12.5071152,23.8096931 L12.6106902,23.7357139 L12.6232938,23.7196733 L12.6232938,23.7196733 L12.6266527,23.7031097 L12.609561,23.275831 C12.6075724,23.2657013 12.6010112,23.2592993 12.5934901,23.257841 L12.5934901,23.257841 Z M12.8583906,23.1452862 L12.8445485,23.1473072 L12.6598443,23.2396597 L12.6498822,23.2499052 L12.6498822,23.2499052 L12.6471943,23.2611114 L12.6650943,23.6906389 L12.6699349,23.7034178 L12.6699349,23.7034178 L12.678386,23.7104931 L12.8793402,23.8032389 C12.8914285,23.8068999 12.9022333,23.8029875 12.9078286,23.7952264 L12.9118235,23.7811639 L12.8776777,23.1665331 C12.8752882,23.1545897 12.8674102,23.1470016 12.8583906,23.1452862 L12.8583906,23.1452862 Z M12.1430473,23.1473072 C12.1332178,23.1423925 12.1221763,23.1452606 12.1156365,23.1525954 L12.1099173,23.1665331 L12.0757714,23.7811639 C12.0751323,23.7926639 12.0828099,23.8018602 12.0926481,23.8045676 L12.108256,23.8032389 L12.3092106,23.7104931 L12.3186497,23.7024347 L12.3186497,23.7024347 L12.3225043,23.6906389 L12.340401,23.2611114 L12.337245,23.2485176 L12.337245,23.2485176 L12.3277531,23.2396597 L12.1430473,23.1473072 Z" id="MingCute" fill-rule="nonzero"></path>
                <path d="M10.1241,3.00783 C10.6722,3.07633 11.0609,3.57612 10.9924,4.12414 L10.5079,8.00000106 L14.4923,8.00000106 L15.0078,3.87607 C15.0763,3.32805 15.5761,2.93932 16.1241,3.00783 C16.6722,3.07633 17.0609,3.57612 16.9924,4.12414 L16.5079,8.00000106 L20,8.00000106 C20.5523,8.00000106 21,8.44772 21,9.00000106 C21,9.55228 20.5523,10.0000011 20,10.0000011 L16.2579,10.0000011 L15.7579,14.0000011 L19.5,14.0000011 C20.0523,14.0000011 20.5,14.4477 20.5,15.0000011 C20.5,15.5523 20.0523,16.0000011 19.5,16.0000011 L15.5079,16.0000011 L14.9924,20.1241 C14.9239,20.6722 14.4241,21.0609 13.8761,20.9924 C13.3281,20.9239 12.9393,20.4241 13.0078,19.8761 L13.4923,16.0000011 L9.5079,16.0000011 L8.99238,20.1241 C8.92388,20.6722 8.42409,21.0609 7.87607,20.9924 C7.32805,20.9239 6.93932,20.4241 7.00783,19.8761 L7.49234,16.0000011 L4.5,16.0000011 C3.94772,16.0000011 3.5,15.5523 3.5,15.0000011 C3.5,14.4477 3.94772,14.0000011 4.5,14.0000011 L7.74234,14.0000011 L8.24234,10.0000011 L5,10.0000011 C4.44772,10.0000011 4,9.55228 4,9.00000106 C4,8.44772 4.44772,8.00000106 5,8.00000106 L8.49234,8.00000106 L9.00783,3.87607 C9.07633,3.32805 9.57612,2.93932 10.1241,3.00783 Z M13.7423,14 L14.2423,10 L10.2579,10 L9.7579,14 L13.7423,14 Z" id="形状" fill="#09244B"></path>
            </g>
        </g>
    </g>
</svg>

<svg xmlns="http://www.w3.org/2000/svg" width="24" height="24"><g fill="none" fill-rule="evenodd"><path d="M24 0v24H0V0h24ZM12.593 23.258l-.011.002-.071.035-.02.004-.014-.004-.071-.035c-.01-.004-.019-.001-.024.005l-.004.01-.017.428.005.02.01.013.104.074.015.004.012-.004.104-.074.012-.016.004-.017-.017-.427c-.002-.01-.009-.017-.017-.018Zm.265-.113-.013.002-.185.093-.01.01-.003.011.018.43.005.012.008.007.201.093c.012.004.023 0 .029-.008l.004-.014-.034-.614c-.003-.012-.01-.02-.02-.022Zm-.715.002a.023.023 0 0 0-.027.006l-.006.014-.034.614c0 .012.007.02.017.024l.015-.002.201-.093.01-.008.004-.011.017-.43-.003-.012-.01-.01-.184-.092Z"/><path fill="#09244B" d="M10.124 3.008a1 1 0 0 1 .868 1.116L10.508 8h3.984l.516-4.124a1 1 0 1 1 1.984.248L16.508 8H20a1 1 0 1 1 0 2h-3.742l-.5 4H19.5a1 1 0 1 1 0 2h-3.992l-.516 4.124a1 1 0 1 1-1.984-.248L13.492 16H9.508l-.516 4.124a1 1 0 1 1-1.984-.248L7.492 16H4.5a1 1 0 1 1 0-2h3.242l.5-4H5a1 1 0 0 1 0-2h3.492l.516-4.124a1 1 0 0 1 1.116-.868ZM13.742 14l.5-4h-3.984l-.5 4h3.984Z"/></g></svg>
